src/assets/images/icons/video.svg

<svg width="24" height="24" viewBox="0 0 24 24" fill="none" xmlns="http://www.w3.org/2000/svg">
<path d="M23 7L16 12L23 17V7Z" stroke="#181D27" stroke-width="2" stroke-linecap="round" stroke-linejoin="round"/>
<path d="M14 5H3C1.89543 5 1 5.89543 1 7V17C1 18.1046 1.89543 19 3 19H14C15.1046 19 16 18.1046 16 17V7C16 5.89543 15.1046 5 14 5Z" stroke="#181D27" stroke-width="2" stroke-linecap="round" stroke-linejoin="round"/>
</svg>

<svg xmlns="http://www.w3.org/2000/svg" fill="none" viewBox="0 0 24 24"><path stroke="#181D27" stroke-linecap="round" stroke-linejoin="round" stroke-width="2" d="m23 7-7 5 7 5zM14 5H3a2 2 0 0 0-2 2v10a2 2 0 0 0 2 2h11a2 2 0 0 0 2-2V7a2 2 0 0 0-2-2"/></svg>
